X: 1484
T: Nihâvent Aranağme (Ağıraksak)
C: ?
O: Turkey
F: http://compmusic.upf.edu/node/140
N: nihavent--aranagme--agiraksak--1--
N: makam= nihavent
N: form= aranagme
N: usul= agiraksak = 9/4
M: 9/4
L: 1/16
K: C _B _e  
Q: 1/4=60
%%MIDI tuningsystem comma53
G3A B2c2 d2e2 d2c2 B2d4d4d4e2 d2^c2  | \
w:  ARANAĞME  | 
d2e2 ^f2g2 a2b2 a2g2 f2g6 =f2e2 d2e4z2  | 
w:   | 
c4 g4 f4 e4 d2c4e4d2 c2B2 A2B2  | \
w:   | 
A4 B4 d2c2 B2A2 G2B2 A2G2 ^F2G8z2  | 
w:   | 
G3A B2c2 d2e2 d2c2 B2d4d4d4e2 d2^c2  | \
w:  ARANAĞME  | 
d2e2 ^f2g2 a2b2 a2g2 f2g6 =f2e2 d2e4z2  | 
w:   | 
c4 g4 f4 e4 d2c4e4d2 c2B2 A2B2  | \
w:   | 
A4 B4 d2c2 B2A2 G2B2 A2G2 ^F2G8z2  | 
w:   | 
|


